symbols/web/movie_filter/materialsymbolsoutlined/movie_filter_wght100grad200_48px.svg

<svg xmlns="http://www.w3.org/2000/svg" height="48" width="48"><path d="m18.75 22.5-1.4 3.05-3.1 1.4 3.1 1.4 1.4 3.1 1.4-3.1 3.05-1.4-3.05-1.4Zm12.5-1-1.05 2.3-2.3 1 2.3 1.1 1.05 2.3 1.05-2.3 2.25-1.1-2.25-1ZM8.8 9.85l2.9 6h6.25l-2.95-6h4.2l2.9 6h6.25l-2.95-6h4.15l2.95 6h6.25l-3-6h3.1q1.4 0 2.375.975.975.975.975 2.375v21.6q0 1.35-.975 2.35t-2.375 1H9.15q-1.35 0-2.35-1t-1-2.35V13.2q0-1.4.775-2.275T8.8 9.85ZM7.55 17.6v17.2q0 .7.45 1.15.45.45 1.15.45h29.7q.7 0 1.15-.45.45-.45.45-1.15V17.6Zm0 0V36.4 34.8Z"/></svg>

<svg xmlns="http://www.w3.org/2000/svg" height="48" width="48"><path d="M18.75 22.5 17.35 25.55 14.25 26.95 17.35 28.35 18.75 31.45 20.15 28.35 23.2 26.95 20.15 25.55ZM31.25 21.5 30.2 23.8 27.9 24.8 30.2 25.9 31.25 28.2 32.3 25.9 34.55 24.8 32.3 23.8ZM8.8 9.85 11.7 15.85H17.95L15 9.85H19.2L22.1 15.85H28.35L25.4 9.85H29.55L32.5 15.85H38.75L35.75 9.85H38.85Q40.25 9.85 41.225 10.825Q42.2 11.8 42.2 13.2V34.8Q42.2 36.15 41.225 37.15Q40.25 38.15 38.85 38.15H9.15Q7.8 38.15 6.8 37.15Q5.8 36.15 5.8 34.8V13.2Q5.8 11.8 6.575 10.925Q7.35 10.05 8.8 9.85ZM7.55 17.6V34.8Q7.55 35.5 8 35.95Q8.45 36.4 9.15 36.4H38.85Q39.55 36.4 40 35.95Q40.45 35.5 40.45 34.8V17.6ZM7.55 17.6V34.8Q7.55 35.5 7.55 35.95Q7.55 36.4 7.55 36.4Q7.55 36.4 7.55 35.95Q7.55 35.5 7.55 34.8Z"/></svg>
